src/images/TheTeam.svg

<svg width="375" height="356" viewBox="0 0 375 356" fill="none" xmlns="http://www.w3.org/2000/svg">
<g filter="url(#filter0_d)">
<path d="M114.946 171H127.946V112H151.146V101H91.7457V112H114.946V171ZM190.002 117C182.602 117 176.302 119.4 172.202 123.8V96.8H159.702V171H172.202V144C172.202 133.3 178.202 127.9 187.102 127.9C195.102 127.9 199.802 132.5 199.802 142V171H212.302V140.4C212.302 124.3 202.802 117 190.002 117ZM278.847 144.6C278.847 127.9 267.447 117 251.847 117C235.947 117 224.247 128.4 224.247 144.3C224.247 160.2 235.847 171.7 253.747 171.7C262.947 171.7 270.447 168.7 275.247 163L268.547 155.3C264.747 159.2 260.047 161.1 254.047 161.1C244.747 161.1 238.247 156.1 236.747 148.3H278.647C278.747 147.1 278.847 145.6 278.847 144.6ZM251.847 127C260.047 127 265.947 132.3 266.947 140H236.647C237.847 132.2 243.747 127 251.847 127ZM69.8773 251H82.8773V192H106.077V181H46.6773V192H69.8773V251ZM159.365 224.6C159.365 207.9 147.965 197 132.365 197C116.465 197 104.765 208.4 104.765 224.3C104.765 240.2 116.365 251.7 134.265 251.7C143.465 251.7 150.965 248.7 155.765 243L149.065 235.3C145.265 239.2 140.565 241.1 134.565 241.1C125.265 241.1 118.765 236.1 117.265 228.3H159.165C159.265 227.1 159.365 225.6 159.365 224.6ZM132.365 207C140.565 207 146.465 212.3 147.465 220H117.165C118.365 212.2 124.265 207 132.365 207ZM190.307 197C181.707 197 173.407 199.2 167.707 203.6L172.607 212.7C176.607 209.4 182.807 207.4 188.807 207.4C197.707 207.4 202.107 211.7 202.107 219V219.8H188.307C172.107 219.8 166.107 226.8 166.107 235.7C166.107 245 173.807 251.7 186.007 251.7C194.007 251.7 199.807 249.1 202.807 244.5V251H214.607V219.7C214.607 204.3 205.707 197 190.307 197ZM188.607 242.6C182.207 242.6 178.407 239.7 178.407 235.2C178.407 231.3 180.707 228.1 189.207 228.1H202.107V234.3C200.007 239.8 194.707 242.6 188.607 242.6ZM298.049 197C289.549 197 282.349 200.4 278.049 205.9C274.349 199.9 267.849 197 260.049 197C252.749 197 246.549 199.6 242.549 204.4V197.6H230.649V251H243.149V223.9C243.149 213.3 248.749 207.9 257.049 207.9C264.649 207.9 269.049 212.5 269.049 222V251H281.549V223.9C281.549 213.3 287.249 207.9 295.449 207.9C303.049 207.9 307.449 212.5 307.449 222V251H319.949V220.4C319.949 204.3 310.949 197 298.049 197Z" fill="#2B2729"/>
</g>
<defs>
<filter id="filter0_d" x="-53.3226" y="0.800049" width="473.272" height="354.9" filterUnits="userSpaceOnUse" color-interpolation-filters="sRGB">
<feFlood flood-opacity="0" result="BackgroundImageFix"/>
<feColorMatrix in="SourceAlpha" type="matrix" values="0 0 0 0 0 0 0 0 0 0 0 0 0 0 0 0 0 0 127 0"/>
<feOffset dy="4"/>
<feGaussianBlur stdDeviation="50"/>
<feColorMatrix type="matrix" values="0 0 0 0 0 0 0 0 0 0 0 0 0 0 0 0 0 0 0.25 0"/>
<feBlend mode="normal" in2="BackgroundImageFix" result="effect1_dropShadow"/>
<feBlend mode="normal" in="SourceGraphic" in2="effect1_dropShadow" result="shape"/>
</filter>
</defs>
</svg>

<svg fill="none" height="356" viewBox="0 0 375 356" width="375" xmlns="http://www.w3.org/2000/svg" xmlns:xlink="http://www.w3.org/1999/xlink"><filter id="a" color-interpolation-filters="sRGB" filterUnits="userSpaceOnUse" height="354.9" width="473.272" x="-53.3226" y=".800049"><feFlood flood-opacity="0" result="BackgroundImageFix"/><feColorMatrix in="SourceAlpha" type="matrix" values="0 0 0 0 0 0 0 0 0 0 0 0 0 0 0 0 0 0 127 0"/><feOffset dy="4"/><feGaussianBlur stdDeviation="50"/><feColorMatrix type="matrix" values="0 0 0 0 0 0 0 0 0 0 0 0 0 0 0 0 0 0 0.25 0"/><feBlend in2="BackgroundImageFix" mode="normal" result="effect1_dropShadow"/><feBlend in="SourceGraphic" in2="effect1_dropShadow" mode="normal" result="shape"/></filter><g filter="url(#a)"><path d="m114.946 171h13v-59h23.2v-11h-59.4003v11h23.2003zm75.056-54c-7.4 0-13.7 2.4-17.8 6.8v-27h-12.5v74.2h12.5v-27c0-10.7 6-16.1 14.9-16.1 8 0 12.7 4.6 12.7 14.1v29h12.5v-30.6c0-16.1-9.5-23.4-22.3-23.4zm88.845 27.6c0-16.7-11.4-27.6-27-27.6-15.9 0-27.6 11.4-27.6 27.3s11.6 27.4 29.5 27.4c9.2 0 16.7-3 21.5-8.7l-6.7-7.7c-3.8 3.9-8.5 5.8-14.5 5.8-9.3 0-15.8-5-17.3-12.8h41.9c.1-1.2.2-2.7.2-3.7zm-27-17.6c8.2 0 14.1 5.3 15.1 13h-30.3c1.2-7.8 7.1-13 15.2-13zm-181.9697 124h13v-59h23.1997v-11h-59.3997v11h23.2zm89.4877-26.4c0-16.7-11.4-27.6-27-27.6-15.9 0-27.6 11.4-27.6 27.3s11.6 27.4 29.5 27.4c9.2 0 16.7-3 21.5-8.7l-6.7-7.7c-3.8 3.9-8.5 5.8-14.5 5.8-9.3 0-15.8-5-17.3-12.8h41.9c.1-1.2.2-2.7.2-3.7zm-27-17.6c8.2 0 14.1 5.3 15.1 13h-30.3c1.2-7.8 7.1-13 15.2-13zm57.942-10c-8.6 0-16.9 2.2-22.6 6.6l4.9 9.1c4-3.3 10.2-5.3 16.2-5.3 8.9 0 13.3 4.3 13.3 11.6v.8h-13.8c-16.2 0-22.2 7-22.2 15.9 0 9.3 7.7 16 19.9 16 8 0 13.8-2.6 16.8-7.2v6.5h11.8v-31.3c0-15.4-8.9-22.7-24.3-22.7zm-1.7 45.6c-6.4 0-10.2-2.9-10.2-7.4 0-3.9 2.3-7.1 10.8-7.1h12.9v6.2c-2.1 5.5-7.4 8.3-13.5 8.3zm109.442-45.6c-8.5 0-15.7 3.4-20 8.9-3.7-6-10.2-8.9-18-8.9-7.3 0-13.5 2.6-17.5 7.4v-6.8h-11.9v53.4h12.5v-27.1c0-10.6 5.6-16 13.9-16 7.6 0 12 4.6 12 14.1v29h12.5v-27.1c0-10.6 5.7-16 13.9-16 7.6 0 12 4.6 12 14.1v29h12.5v-30.6c0-16.1-9-23.4-21.9-23.4z" fill="#2b2729"/></g></svg>
